public/illustrations/_sun.svg

<svg width="425" height="278" viewBox="0 0 425 278" fill="none" xmlns="http://www.w3.org/2000/svg">
<path d="M318.679 51.3958C327.033 51.1126 335.245 53.0948 342.608 56.9177C344.731 53.378 346.714 49.9799 348.696 46.5818C354.642 35.9629 360.589 25.3439 366.536 14.725C367.527 13.0259 368.235 11.1854 369.084 9.62792C369.651 8.49523 370.5 7.64564 371.633 7.0793C372.766 6.51296 374.04 6.51302 375.173 6.7962C375.881 6.7962 376.73 7.22089 377.155 7.78723C377.721 8.35357 378.004 9.0615 378.146 9.91102C378.571 11.8932 378.287 13.8754 377.438 15.5745C369.367 29.8746 361.297 44.1749 353.368 58.4751C352.66 59.7494 351.952 61.1652 351.103 62.7227C355.917 67.1118 359.881 72.3506 362.855 78.014C363.987 78.014 365.12 77.7308 366.394 77.4476C375.739 74.7575 385.084 71.9257 394.287 69.094C401.083 67.1118 407.737 64.988 414.534 63.0058C415.949 62.581 417.507 62.0148 418.923 61.7316C420.197 61.4485 421.471 61.7315 422.604 62.2978C423.737 62.8642 424.586 63.997 424.869 65.2713C425.153 66.404 424.869 67.6781 424.303 68.6692C423.737 69.6603 422.746 70.3682 421.613 70.793C416.091 72.6336 410.428 74.4743 404.764 76.1733C397.543 78.4387 390.322 80.4209 383.101 82.6862C378.146 84.1021 373.332 85.6597 368.376 87.2171C367.668 87.5003 366.961 87.7834 365.969 88.2081C367.952 96.8449 367.244 106.048 363.987 114.402C364.695 114.968 365.403 115.534 366.111 115.959C376.022 120.914 386.075 126.012 396.127 130.967C401.791 133.799 407.596 136.206 413.259 138.754C414.392 139.179 415.242 139.745 416.091 140.595C416.799 141.303 417.224 142.152 417.224 143.144C417.224 144.135 417.224 145.126 416.657 145.975C416.233 146.966 415.383 147.674 414.534 148.099C413.684 148.524 412.551 148.807 411.56 148.665C410.852 148.665 410.003 148.382 409.437 147.957C406.322 146.541 403.207 144.984 400.092 143.427L362.005 124.879C361.156 124.454 360.306 124.171 359.598 123.746C356.908 126.436 354.359 129.41 351.528 131.817C348.696 134.224 345.581 136.206 342.466 138.471C343.174 140.878 344.023 143.144 344.731 145.409C349.829 160.417 355.209 175.425 361.58 190.008C362.147 191 362.288 192.132 362.288 193.265C362.288 194.398 361.722 195.53 361.014 196.38C360.164 197.229 359.173 197.796 358.041 198.079C356.766 198.079 355.634 197.796 354.643 197.088C353.651 196.38 352.802 195.389 352.377 194.256C350.961 191.141 349.687 187.885 348.554 184.628C344.873 174.576 341.192 164.381 337.369 154.329C335.953 150.223 334.537 146.117 332.98 141.869C330.006 142.152 327.316 142.577 324.485 142.577C321.511 142.577 318.538 142.577 315.706 142.011C312.874 141.586 310.184 140.736 307.211 140.029C302.397 147.957 298.149 156.311 293.477 164.806C296.167 164.523 298.291 164.24 300.556 164.098C302.68 163.815 304.946 163.673 307.069 163.249C308.344 163.107 309.476 162.541 310.467 161.691C313.866 158.293 318.255 159.992 319.387 164.806C320.379 168.487 321.087 172.31 321.936 175.991C325.476 191.424 329.015 206.857 332.413 222.29C332.555 223.14 332.697 223.989 332.838 224.98C333.546 229.228 331.989 231.21 327.883 231.918C318.113 233.334 308.344 234.608 298.574 236.024C286.398 237.723 274.363 239.563 262.186 241.404C258.505 241.97 254.824 242.537 251.992 243.103L245.621 238.572V243.953L232.595 245.652C226.648 246.501 220.702 247.351 214.755 248.2C208.808 249.05 202.579 250.182 196.632 251.032C186.579 252.589 176.668 254.147 166.757 255.563C162.934 256.129 159.111 256.695 155.43 257.262C153.873 257.403 152.457 257.687 150.899 258.253C149.908 258.678 148.776 258.819 147.643 258.678C146.51 258.536 145.519 258.111 144.67 257.545C143.537 256.837 142.263 256.129 141.13 255.563L140.847 259.244C134.759 260.094 128.812 260.943 122.865 261.934C116.919 262.784 110.972 263.775 105.025 264.766L92.8489 266.606C82.7963 268.164 72.6021 269.721 62.5494 271.137C58.3018 271.703 54.1958 272.27 49.9482 272.836C48.9571 272.836 47.966 273.403 47.3996 274.111C44.9927 277.792 41.3114 277.65 37.9134 275.951C32.8162 273.544 27.5775 271.279 22.7636 268.447C16.6754 264.908 10.0208 262.359 3.6494 259.244C0.251318 257.545 -0.739805 255.28 0.534474 251.74C0.817647 250.89 1.24244 250.041 1.80879 249.333C4.35735 244.519 6.9059 239.847 9.45445 235.033C12.7109 228.803 15.9674 222.432 19.2239 216.202C21.2061 212.521 23.3299 209.123 25.3121 205.441C26.0201 204.167 27.0112 203.176 28.1439 202.326C29.2765 201.477 30.6924 201.052 32.1083 200.911C38.3381 200.061 44.5679 199.353 50.7977 198.362C57.4523 197.371 63.9653 196.38 70.6198 195.53C77.2744 194.681 83.5042 193.831 90.0172 192.982C96.1054 192.132 102.194 191.283 108.282 190.433L123.148 188.309L128.954 187.46L130.511 190.575C130.794 190.575 131.077 190.433 131.077 190.292C133.06 187.177 135.75 186.186 139.573 186.044C144.103 185.761 148.776 185.053 153.306 184.204L172.279 181.513C178.934 180.522 185.73 179.531 192.384 178.682C198.897 177.832 205.269 176.983 211.782 176.133C218.295 175.283 224.666 174.292 231.179 173.301C231.887 173.301 232.453 173.301 233.303 173.16C233.728 174.292 234.152 175.425 234.719 176.841C235.143 176.275 235.568 175.708 236.135 175.284C237.692 173.443 239.816 172.169 242.364 171.744C248.877 170.894 255.249 170.045 261.762 169.195C267.567 168.346 273.372 167.638 279.318 166.788C280.026 166.788 280.876 166.364 281.442 165.939C282.009 165.514 282.575 164.806 282.858 164.098C284.274 161.55 285.548 159.143 286.823 156.594C290.362 150.081 294.043 143.568 297.583 137.055C298.008 136.347 298.291 135.639 298.574 134.79C290.362 129.127 283.991 121.056 280.31 111.853C277.761 112.561 275.496 113.269 273.23 113.977C264.593 116.667 255.957 119.499 247.32 122.33C240.807 124.454 234.436 126.72 228.064 128.985C226.648 129.41 225.091 129.41 223.675 128.985C222.684 128.702 221.834 128.277 221.268 127.569C220.56 126.861 220.135 126.012 220.135 125.02C220.135 123.888 220.277 122.897 220.843 121.906C221.41 120.915 222.259 120.207 223.25 119.782C224.524 119.216 225.94 119.074 227.356 118.649C233.869 116.525 240.524 114.26 247.037 112.136C253.55 110.012 259.921 108.03 266.434 105.906C270.257 104.632 273.938 103.358 278.044 101.942C277.336 94.1547 278.469 86.226 281.301 78.8635C278.469 77.1645 275.779 75.7485 273.089 74.1911C263.036 68.6692 252.983 63.289 242.931 57.9087C240.382 56.4928 237.692 55.077 235.143 53.6611C234.011 52.9532 233.02 52.2453 232.029 51.3958C231.179 50.5463 230.613 49.5552 230.613 48.4225C230.613 47.2898 230.754 46.1571 231.462 45.166C232.17 44.1749 233.303 43.6086 234.436 43.3254C235.568 43.0423 236.842 43.1838 237.975 43.7501C241.94 46.0155 245.904 48.4225 250.01 50.5463C258.505 55.2186 266.859 59.7493 275.354 64.4216L285.973 70.2268C292.061 62.5811 299.141 56.776 308.344 53.8027C309.193 52.2452 308.627 50.971 308.344 49.5551C306.361 42.4758 304.379 35.5382 302.397 28.4589C300.273 21.3796 298.149 14.7251 296.167 7.92895C295.742 6.65468 295.742 5.23879 296.167 3.82293C296.45 2.69024 297.017 1.6991 297.866 1.13276C298.716 0.424827 299.848 0 300.84 0C301.831 0 302.963 0.283276 303.813 0.991206C304.662 1.55755 305.37 2.54855 305.795 3.53965C307.353 8.63674 308.627 13.8754 310.184 19.1141C312.167 26.1934 314.149 33.1312 316.131 40.2105C316.839 43.7501 317.972 47.4314 319.246 51.3958H318.679ZM322.927 132.383C340.767 132.383 357.333 118.791 357.333 97.4112C357.333 92.7389 356.625 88.0666 354.784 83.6775C353.085 79.2883 350.395 75.3238 347.138 72.0673C343.882 68.8108 339.918 66.1207 335.528 64.2801C331.139 62.4394 326.467 61.5899 321.794 61.5899C301.264 61.5899 287.389 77.8724 287.389 96.4202C287.389 101.093 288.238 105.765 290.079 110.154C291.92 114.543 294.468 118.366 297.725 121.764C300.981 125.02 304.946 127.711 309.335 129.551C313.724 131.392 318.255 132.241 322.927 132.383ZM44.8511 263.492L82.3715 257.828C81.0973 250.466 79.9646 243.669 78.8319 236.449L41.3114 241.546C42.5857 248.908 43.7184 256.129 44.9927 263.492H44.8511ZM130.228 250.749C129.378 243.67 127.679 237.015 126.405 229.936C113.521 231.493 101.061 233.334 88.3182 235.174C90.1588 242.395 90.5836 249.616 92.141 256.412L130.228 250.749ZM39.754 231.776C42.3025 231.493 44.4263 231.21 46.4086 230.927C55.3285 229.653 64.3901 228.378 73.31 227.104C74.5843 226.821 75.8585 226.538 77.1328 226.113C76.5665 222.29 76.1417 218.892 75.5754 215.494C74.8674 212.096 75.009 208.698 73.4516 205.583C67.0802 206.432 60.8504 206.999 54.6206 208.131C48.3908 209.264 42.3025 209.406 36.2143 211.105C37.4886 218.184 38.1965 224.98 39.8956 231.776H39.754ZM124.564 220.025C123.148 212.945 121.874 206.149 120.458 199.07L83.5042 204.309C84.7785 211.388 85.9112 218.184 87.1855 225.263L124.564 220.166V220.025ZM188.278 189.584C189.411 196.663 190.685 203.318 192.243 210.397L229.055 205.441C227.639 198.362 226.365 191.566 225.091 184.487L188.42 189.584H188.278ZM194.367 220.166C195.074 224.131 195.641 227.246 196.066 230.502C196.349 233.9 197.057 237.298 198.048 240.696L234.577 235.316L230.754 215.211L194.367 220.025V220.166ZM184.455 221.582L150.475 226.113C151.749 233.334 153.023 240.272 154.298 247.351L187.712 242.395C186.579 235.458 185.588 228.803 184.314 221.582H184.455ZM178.367 191C167.04 192.699 156.138 193.831 144.953 195.955C146.227 202.893 147.36 209.547 148.634 216.343L182.19 211.813C180.916 204.733 179.641 197.937 178.367 191ZM284.982 206.432L255.107 210.68C256.381 217.901 257.656 224.839 259.072 231.635C264.452 230.927 269.407 230.361 274.221 229.511C279.035 228.661 283.991 228.378 288.805 226.962C288.946 225.405 288.946 223.706 288.805 222.148C287.672 216.91 286.256 211.813 284.982 206.432ZM253.408 200.911C263.461 199.353 273.089 198.22 282.858 196.521C281.725 189.725 279.885 183.495 278.469 176.982C268.558 178.682 258.93 179.39 249.444 181.372C250.86 188.026 251.567 194.539 253.267 200.911H253.408ZM294.893 205.158C295.742 208.839 296.592 212.096 297.3 215.494C298.008 218.892 298.716 222.148 299.424 225.83L322.219 222.432L317.547 201.902L294.751 205.158H294.893ZM311.034 172.593L288.097 175.85C289.796 182.363 291.353 188.593 292.911 195.106C300.415 194.398 307.636 193.123 315.423 191.991L311.034 172.593ZM11.7198 252.023L34.3737 263.35C33.9489 258.111 32.9578 253.722 32.2499 249.191C31.542 244.802 30.834 240.13 29.9845 235.599C29.2766 231.068 28.5686 226.679 27.7191 221.582L11.7198 252.023ZM240.665 188.168L236.418 191C238.825 203.742 241.232 216.343 243.639 228.945L248.169 228.661C245.621 214.928 243.072 201.619 240.524 188.026L240.665 188.168ZM143.679 245.369C142.263 237.723 141.13 230.644 139.856 223.706C138.581 216.768 137.307 209.972 135.891 202.61L132.352 207.848C134.617 219.6 136.882 231.493 139.148 243.103L143.679 245.369Z" fill="#102185"/>
<path d="M166.332 170.894C166.332 173.584 165.483 175 163.217 175.85C162.368 176.133 161.377 176.133 160.386 175.85C159.536 175.566 158.686 175 158.12 174.15C157.271 173.018 156.563 171.744 156.138 170.469C155.288 167.638 154.722 164.806 154.014 161.974C153.448 159.567 152.74 157.302 152.032 155.036C151.041 152.063 151.466 149.373 153.448 148.099C155.713 146.824 158.545 147.532 160.386 150.223C161.518 151.922 162.368 153.762 162.934 155.744C164.208 160.133 165.058 164.664 166.191 169.195C166.191 169.761 166.332 170.328 166.474 170.894H166.332Z" fill="#102185"/>
<path d="M86.7607 177.691V181.514C86.7607 182.647 86.3359 183.779 85.4864 184.487C84.6369 185.337 83.6458 185.761 82.5131 185.761C81.3804 185.761 80.3893 185.62 79.3982 185.053C78.5487 184.487 77.8408 183.496 77.416 182.505C76.9912 181.372 76.8497 180.239 76.7081 179.107C76.7081 174.151 75.1506 169.62 74.0179 164.948C73.7348 164.24 73.5931 163.532 73.4516 162.683C73.31 161.55 73.4516 160.418 74.1595 159.426C74.7258 158.435 75.717 157.727 76.7081 157.303C77.9824 156.878 79.2566 157.019 80.3893 157.586C81.522 158.152 82.3715 159.143 82.7963 160.417C83.929 163.674 84.9201 166.93 85.628 170.329C86.1944 172.735 86.336 175.426 86.7607 177.833H86.6191L86.7607 177.691Z" fill="#102185"/>
<path d="M197.057 165.514C197.057 166.788 196.632 167.921 195.782 168.771C194.933 169.62 193.8 170.186 192.526 170.186C191.252 170.186 190.119 169.903 189.128 169.195C188.137 168.487 187.429 167.355 187.287 166.08C186.579 162.116 186.154 158.01 185.588 154.046V152.488C185.588 151.355 186.013 150.364 186.721 149.515C187.429 148.665 188.42 148.099 189.411 147.816C190.544 147.674 191.535 147.816 192.526 148.382C193.517 148.948 194.225 149.798 194.65 150.789C195.216 152.205 195.499 153.762 195.782 155.178C196.349 158.01 196.773 160.983 197.057 162.966V165.514Z" fill="#102185"/>
<path d="M323.635 112.277C317.688 112.702 313.158 109.729 309.052 105.764C307.777 104.49 307.069 102.791 307.069 100.95C306.786 97.5523 311.175 95.1453 313.866 96.9859C314.857 97.6938 315.848 98.5434 316.839 99.393C320.662 102.933 323.777 103.216 328.307 100.809C329.44 100.242 330.714 99.9594 331.989 99.9594C332.98 99.9594 333.829 99.9593 334.679 100.667C335.387 101.234 336.095 101.942 336.236 102.791C336.661 103.499 336.803 104.348 336.661 105.198C336.661 106.047 336.236 106.755 335.67 107.463C333.121 110.153 330.29 112.277 326.467 112.277H323.635Z" fill="#102185"/>
<path d="M314.007 93.871C312.733 93.871 311.6 93.1631 310.892 92.172C310.043 91.1809 309.759 90.0482 309.901 88.7739C310.043 87.4997 310.609 86.5085 311.6 85.659C312.591 84.8094 313.724 84.5264 314.998 84.5264C315.706 84.5264 316.272 84.6678 316.839 84.951C317.405 85.2342 317.971 85.659 318.396 86.0838C318.821 86.6501 319.104 87.2164 319.246 87.7827C319.387 88.3491 319.387 89.057 319.246 89.765C319.246 90.3313 319.104 91.0394 318.821 91.4641C318.538 91.8889 318.113 92.4552 317.688 92.88C317.263 93.3047 316.697 93.5879 315.989 93.7295C315.423 93.871 314.715 93.871 314.149 93.7295L314.007 93.871Z" fill="#102185"/>
<path d="M331.705 95.0049C330.431 95.0049 329.298 94.4386 328.449 93.5891C327.599 92.7395 327.033 91.6068 327.033 90.3325C327.033 89.0582 327.599 87.7839 328.59 86.9344C329.582 86.0849 330.714 85.5186 332.13 85.5186C333.263 85.6601 334.254 86.2264 335.104 87.076C335.953 87.9255 336.378 88.9167 336.661 90.0494C336.661 91.3237 336.095 92.598 335.245 93.5891C334.396 94.5802 333.121 95.0049 331.847 95.1465L331.705 95.0049Z" fill="#102185"/>
</svg>

<svg xmlns="http://www.w3.org/2000/svg" width="425" height="278" fill="none" viewBox="0 0 425 278"><path fill="#102185" d="M318.679 51.396c8.354-.283 16.566 1.699 23.929 5.522a966 966 0 0 0 6.088-10.336q8.92-15.93 17.84-31.857c.991-1.7 1.699-3.54 2.548-5.097a5.56 5.56 0 0 1 2.549-2.549c1.133-.566 2.407-.566 3.54-.283.708 0 1.557.425 1.982.991.566.567.849 1.275.991 2.124a8.6 8.6 0 0 1-.708 5.664c-8.071 14.3-16.141 28.6-24.07 42.9-.708 1.274-1.416 2.69-2.265 4.248 4.814 4.389 8.778 9.628 11.752 15.291 1.132 0 2.265-.283 3.539-.566 9.345-2.69 18.69-5.522 27.893-8.354 6.796-1.982 13.45-4.106 20.247-6.088 1.415-.425 2.973-.991 4.389-1.274 1.274-.283 2.548 0 3.681.566s1.982 1.699 2.265 2.973c.284 1.133 0 2.407-.566 3.398s-1.557 1.7-2.69 2.124c-5.522 1.84-11.185 3.681-16.849 5.38-7.221 2.266-14.442 4.248-21.663 6.513-4.955 1.416-9.769 2.974-14.725 4.531-.708.283-1.415.566-2.407.991 1.983 8.637 1.275 17.84-1.982 26.194.708.566 1.416 1.132 2.124 1.557 9.911 4.955 19.964 10.053 30.016 15.008 5.664 2.832 11.469 5.239 17.132 7.787 1.133.425 1.983.991 2.832 1.841.708.708 1.133 1.557 1.133 2.549 0 .991 0 1.982-.567 2.831-.424.991-1.274 1.699-2.123 2.124s-1.983.708-2.974.566a3.8 3.8 0 0 1-2.123-.708c-3.115-1.416-6.23-2.973-9.345-4.53l-38.087-18.548c-.849-.425-1.699-.708-2.407-1.133-2.69 2.69-5.239 5.664-8.07 8.071s-5.947 4.389-9.062 6.654c.708 2.407 1.557 4.673 2.265 6.938 5.098 15.008 10.478 30.016 16.849 44.599.567.992.708 2.124.708 3.257s-.566 2.265-1.274 3.115a6.3 6.3 0 0 1-2.973 1.699c-1.275 0-2.407-.283-3.398-.991s-1.841-1.699-2.266-2.832c-1.416-3.115-2.69-6.371-3.823-9.628-3.681-10.052-7.362-20.247-11.185-30.299-1.416-4.106-2.832-8.212-4.389-12.46-2.974.283-5.664.708-8.495.708-2.974 0-5.947 0-8.779-.566-2.832-.425-5.522-1.275-8.495-1.982-4.814 7.928-9.062 16.282-13.734 24.777 2.69-.283 4.814-.566 7.079-.708 2.124-.283 4.39-.425 6.513-.849 1.275-.142 2.407-.708 3.398-1.558 3.399-3.398 7.788-1.699 8.92 3.115.992 3.681 1.7 7.504 2.549 11.185 3.54 15.433 7.079 30.866 10.477 46.299.142.85.284 1.699.425 2.69.708 4.248-.849 6.23-4.955 6.938-9.77 1.416-19.539 2.69-29.309 4.106-12.176 1.699-24.211 3.539-36.388 5.38-3.681.566-7.362 1.133-10.194 1.699l-6.371-4.531v5.381l-13.026 1.699-17.84 2.548c-5.947.85-12.176 1.982-18.123 2.832-10.053 1.557-19.964 3.115-29.875 4.531-3.823.566-7.646 1.132-11.327 1.699-1.557.141-2.973.425-4.531.991-.991.425-2.123.566-3.256.425-1.133-.142-2.124-.567-2.973-1.133a44 44 0 0 0-3.54-1.982l-.283 3.681c-6.088.85-12.035 1.699-17.982 2.69-5.946.85-11.893 1.841-17.84 2.832l-12.176 1.84c-10.053 1.558-20.247 3.115-30.3 4.531-4.247.566-8.353 1.133-12.6 1.699-.992 0-1.983.567-2.55 1.275-2.406 3.681-6.088 3.539-9.486 1.84-5.097-2.407-10.335-4.672-15.15-7.504-6.088-3.539-12.742-6.088-19.114-9.203C.251 257.545-.74 255.28.534 251.74c.284-.85.708-1.699 1.275-2.407 2.548-4.814 5.097-9.486 7.645-14.3 3.257-6.23 6.513-12.601 9.77-18.831 1.982-3.681 4.106-7.079 6.088-10.761.708-1.274 1.7-2.265 2.832-3.115 1.133-.849 2.548-1.274 3.964-1.415 6.23-.85 12.46-1.558 18.69-2.549 6.654-.991 13.167-1.982 19.822-2.832s12.884-1.699 19.397-2.548l18.265-2.549 14.866-2.124 5.806-.849 1.557 3.115c.283 0 .566-.142.566-.283 1.983-3.115 4.673-4.106 8.496-4.248 4.53-.283 9.203-.991 13.733-1.84l18.973-2.691c6.655-.991 13.451-1.982 20.105-2.831 6.513-.85 12.885-1.699 19.398-2.549s12.884-1.841 19.397-2.832c.708 0 1.274 0 2.124-.141.425 1.132.849 2.265 1.416 3.681.424-.566.849-1.133 1.416-1.557a10.26 10.26 0 0 1 6.229-3.54c6.513-.85 12.885-1.699 19.398-2.549 5.805-.849 11.61-1.557 17.556-2.407.708 0 1.558-.424 2.124-.849a4.6 4.6 0 0 0 1.416-1.841 192 192 0 0 0 3.965-7.504c3.539-6.513 7.22-13.026 10.76-19.539.425-.708.708-1.416.991-2.265-8.212-5.663-14.583-13.734-18.264-22.937-2.549.708-4.814 1.416-7.08 2.124-8.637 2.69-17.273 5.522-25.91 8.353-6.513 2.124-12.884 4.39-19.256 6.655a7.7 7.7 0 0 1-4.389 0c-.991-.283-1.841-.708-2.407-1.416-.708-.708-1.133-1.557-1.133-2.549 0-1.132.142-2.123.708-3.114a5 5 0 0 1 2.407-2.124c1.274-.566 2.69-.708 4.106-1.133 6.513-2.124 13.168-4.389 19.681-6.513s12.884-4.106 19.397-6.23c3.823-1.274 7.504-2.548 11.61-3.964-.708-7.787.425-15.716 3.257-23.078-2.832-1.7-5.522-3.115-8.212-4.673-10.053-5.522-20.106-10.902-30.158-16.282-2.549-1.416-5.239-2.832-7.788-4.248a25 25 0 0 1-3.114-2.265c-.85-.85-1.416-1.84-1.416-2.974 0-1.132.141-2.265.849-3.256s1.841-1.557 2.974-1.84c1.132-.284 2.406-.142 3.539.424 3.965 2.266 7.929 4.672 12.035 6.796 8.495 4.673 16.849 9.203 25.344 13.876l10.619 5.805c6.088-7.646 13.168-13.451 22.371-16.424.849-1.558.283-2.832 0-4.248-1.983-7.08-3.965-14.017-5.947-21.096-2.124-7.08-4.248-13.734-6.23-20.53-.425-1.274-.425-2.69 0-4.106.283-1.133.85-2.124 1.699-2.69C298.716.425 299.848 0 300.84 0c.991 0 2.123.283 2.973.991.849.567 1.557 1.558 1.982 2.549 1.558 5.097 2.832 10.335 4.389 15.574 1.983 7.08 3.965 14.017 5.947 21.097.708 3.54 1.841 7.22 3.115 11.185zm4.248 80.987c17.84 0 34.406-13.592 34.406-34.972 0-4.672-.708-9.344-2.549-13.734-1.699-4.389-4.389-8.353-7.646-11.61a36.4 36.4 0 0 0-11.61-7.787c-4.389-1.84-9.061-2.69-13.734-2.69-20.53 0-34.405 16.282-34.405 34.83 0 4.673.849 9.345 2.69 13.734s4.389 8.212 7.646 11.61a36.4 36.4 0 0 0 11.61 7.787c4.389 1.841 8.92 2.69 13.592 2.832M44.851 263.492l37.52-5.664a1345 1345 0 0 1-3.54-21.379l-37.52 5.097c1.275 7.362 2.407 14.583 3.682 21.946zm85.377-12.743c-.85-7.079-2.549-13.734-3.823-20.813-12.884 1.557-25.344 3.398-38.087 5.238 1.84 7.221 2.266 14.442 3.823 21.238zm-90.474-18.973c2.549-.283 4.672-.566 6.655-.849 8.92-1.274 17.981-2.549 26.901-3.823 1.274-.283 2.549-.566 3.823-.991-.566-3.823-.991-7.221-1.558-10.619-.708-3.398-.566-6.796-2.123-9.911-6.372.849-12.602 1.416-18.831 2.548-6.23 1.133-12.318 1.275-18.407 2.974 1.275 7.079 1.983 13.875 3.682 20.671zm84.81-11.751c-1.416-7.08-2.69-13.876-4.106-20.955l-36.954 5.239c1.274 7.079 2.407 13.875 3.682 20.954l37.378-5.097zm63.714-30.441a359 359 0 0 0 3.965 20.813l36.812-4.956a1087 1087 0 0 1-3.964-20.954l-36.671 5.097zm6.089 30.582c.707 3.965 1.274 7.08 1.699 10.336.283 3.398.991 6.796 1.982 10.194l36.529-5.38-3.823-20.105-36.387 4.814zm-9.912 1.416-33.98 4.531c1.274 7.221 2.548 14.159 3.823 21.238l33.414-4.956c-1.133-6.937-2.124-13.592-3.398-20.813zM178.367 191c-11.327 1.699-22.229 2.831-33.414 4.955 1.274 6.938 2.407 13.592 3.681 20.388l33.556-4.53c-1.274-7.08-2.549-13.876-3.823-20.813m106.615 15.432-29.875 4.248c1.274 7.221 2.549 14.159 3.965 20.955 5.38-.708 10.335-1.274 15.149-2.124s9.77-1.133 14.584-2.549a27.5 27.5 0 0 0 0-4.814c-1.133-5.238-2.549-10.335-3.823-15.716m-31.574-5.521c10.053-1.558 19.681-2.691 29.45-4.39-1.133-6.796-2.973-13.026-4.389-19.539-9.911 1.7-19.539 2.408-29.025 4.39 1.416 6.654 2.123 13.167 3.823 19.539zm41.485 4.247c.849 3.681 1.699 6.938 2.407 10.336s1.416 6.654 2.124 10.336l22.795-3.398-4.672-20.53-22.796 3.256zm16.141-32.565-22.937 3.257a960 960 0 0 1 4.814 19.256c7.504-.708 14.725-1.983 22.512-3.115zM11.72 252.023l22.654 11.327c-.425-5.239-1.416-9.628-2.124-14.159-.708-4.389-1.416-9.061-2.265-13.592-.708-4.531-1.416-8.92-2.266-14.017zm228.945-63.855L236.418 191c2.407 12.742 4.814 25.343 7.221 37.945l4.53-.284c-2.548-13.733-5.097-27.042-7.645-40.635zm-96.986 57.201c-1.416-7.646-2.549-14.725-3.823-21.663a2548 2548 0 0 0-3.965-21.096l-3.539 5.238c2.265 11.752 4.53 23.645 6.796 35.255z"/><path fill="#102185" d="M166.332 170.894c0 2.69-.849 4.106-3.115 4.956-.849.283-1.84.283-2.831 0-.85-.284-1.7-.85-2.266-1.7-.849-1.132-1.557-2.406-1.982-3.681-.85-2.831-1.416-5.663-2.124-8.495-.566-2.407-1.274-4.672-1.982-6.938-.991-2.973-.566-5.663 1.416-6.937 2.265-1.275 5.097-.567 6.938 2.124a19.6 19.6 0 0 1 2.548 5.521c1.274 4.389 2.124 8.92 3.257 13.451 0 .566.141 1.133.283 1.699zM86.76 177.691v3.823c0 1.133-.424 2.265-1.274 2.973q-1.274 1.275-2.973 1.274c-1.133 0-2.124-.141-3.115-.708-.85-.566-1.557-1.557-1.982-2.548-.425-1.133-.566-2.266-.708-3.398 0-4.956-1.557-9.487-2.69-14.159-.283-.708-.425-1.416-.566-2.265-.142-1.133 0-2.265.707-3.257.567-.991 1.558-1.699 2.55-2.123 1.273-.425 2.548-.284 3.68.283 1.133.566 1.983 1.557 2.407 2.831 1.133 3.257 2.124 6.513 2.832 9.912.566 2.406.708 5.097 1.133 7.504h-.142zM197.057 165.514c0 1.274-.425 2.407-1.275 3.257-.849.849-1.982 1.415-3.256 1.415s-2.407-.283-3.398-.991a4.47 4.47 0 0 1-1.841-3.115c-.708-3.964-1.133-8.07-1.699-12.034v-1.558c0-1.133.425-2.124 1.133-2.973.708-.85 1.699-1.416 2.69-1.699 1.133-.142 2.124 0 3.115.566a5 5 0 0 1 2.124 2.407c.566 1.416.849 2.973 1.132 4.389.567 2.832.991 5.805 1.275 7.788zM323.635 112.277c-5.947.425-10.477-2.548-14.583-6.513a6.74 6.74 0 0 1-1.983-4.814c-.283-3.398 4.106-5.805 6.797-3.964.991.708 1.982 1.557 2.973 2.407 3.823 3.54 6.938 3.823 11.468 1.416a8.25 8.25 0 0 1 3.682-.85c.991 0 1.84 0 2.69.708.708.567 1.416 1.275 1.557 2.124.425.708.567 1.557.425 2.407 0 .849-.425 1.557-.991 2.265-2.549 2.69-5.38 4.814-9.203 4.814zM314.007 93.871c-1.274 0-2.407-.708-3.115-1.699-.849-.991-1.133-2.124-.991-3.398s.708-2.266 1.699-3.115 2.124-1.133 3.398-1.133c.708 0 1.274.142 1.841.425a6.3 6.3 0 0 1 1.557 1.133q.637.849.85 1.699c.141.566.141 1.274 0 1.982 0 .566-.142 1.274-.425 1.7-.283.424-.708.99-1.133 1.415q-.637.637-1.699.85a4.04 4.04 0 0 1-1.84 0zM331.705 95.005c-1.274 0-2.407-.566-3.256-1.416-.85-.85-1.416-1.982-1.416-3.257 0-1.274.566-2.548 1.557-3.398.992-.85 2.124-1.415 3.54-1.415 1.133.141 2.124.707 2.974 1.557.849.85 1.274 1.84 1.557 2.973 0 1.275-.566 2.549-1.416 3.54-.849.991-2.124 1.416-3.398 1.558z"/></svg>
